X: 17381
T: High Road To Galway, The
R: reel
M: 4/4
K: Gmajor
G3A GE E2|cABG AE E2|cBAc BAGB|AGEG ABcA|
G3A GE E2|cABG AE E2|cBAc BAGB|AGEG ABcd||
(3Bcd ef g2ag|egdg eA A2|(3Bcd ef g2 af|gedB A3G|
(3Bcd ef g2ag|egdg eA A2|=f3d ecdB|cAAG AGEA||

